X: 14637
T: Gan Ainm
R: hornpipe
M: 4/4
K: Gmajor
|:(3DEF|G2dG eGdG|~g2fg edBd|g2fg edBd|eAAG ADEF|
G2dG eGdG|~g2fg edBd|gbaf gdBG|AGEF G2:|
|:(3ABc|d~G3 e~G3|gafg edBd|gAfA eAdA|e2AA GABc|
dGBd eGce|g2fg edBd|gbaf gdBG|AGEF G2:|

